X: 9178
T: Dálaigh's
R: polka
M: 2/4
K: Edorian
|:E>F GA|Be dB|A>B AF|EF DF|
E>F GA|Be dB|AF dF|FE E2:|
|:Be ed/e/|fe dA|Be ed/e/|fe d2|
Be ed/e/|fe dB|AF dF|FE E2:|

